assets/img/icons/duotone-icons/Food/Sushi.svg

<?xml version="1.0" encoding="UTF-8"?>
<svg width="24px" height="24px" viewBox="0 0 24 24" version="1.1" xmlns="http://www.w3.org/2000/svg" xmlns:xlink="http://www.w3.org/1999/xlink">
    <!-- Generator: Sketch 52.2 (67145) - http://www.bohemiancoding.com/sketch -->
    <title>Stockholm-icons / Food / Sushi</title>
    <desc>Created with Sketch.</desc>
    <g id="Stockholm-icons-/-Food-/-Sushi" stroke="none" stroke-width="1" fill="none" fill-rule="evenodd">
        <rect id="bound" x="0" y="0" width="24" height="24"></rect>
        <path d="M7,17 C9.28100068,17 11,15.9686004 11,15 C11,14.0313996 9.28100068,13 7,13 C4.71899932,13 3,14.0313996 3,15 C3,15.9686004 4.71899932,17 7,17 Z M11.5,21.3092376 C10.6896396,22.3100893 8.97910086,23 7,23 C4.23857625,23 2,21.6568542 2,20 C2,17.2642141 2,15.5975474 2,15 C2,13.3431458 4.23857625,12 7,12 C8.97910086,12 10.6896396,12.6899107 11.5,13.6907624 C12.3103604,12.6899107 14.0208991,12 16,12 C18.7614237,12 21,13.3431458 21,15 C21,15.3356863 21,17.0023529 21,20 C21,21.6568542 18.7614237,23 16,23 C14.0208991,23 12.3103604,22.3100893 11.5,21.3092376 Z M16,17 C18.2810007,17 20,15.9686004 20,15 C20,14.0313996 18.2810007,13 16,13 C13.7189993,13 12,14.0313996 12,15 C12,15.9686004 13.7189993,17 16,17 Z" id="Combined-Shape" fill="#335EEA"></path>
        <path d="M19.6608485,2.02106698 C19.8359854,2.52970126 19.5656323,3.08400728 19.056998,3.25914411 C19.0489211,3.2619252 19.040808,3.26459992 19.0326607,3.26716758 L2.33565766,8.52933019 C2.07027996,8.61296559 1.78658327,8.46994761 1.6959956,8.20686191 C1.60540793,7.94377622 1.74091331,7.65641538 2.00152489,7.55893815 L18.3986537,1.42587734 C18.9025046,1.23742064 19.4637309,1.49309823 19.6521876,1.99694922 C19.6551802,2.00495015 19.6580674,2.01299009 19.6608485,2.02106698 Z M20.9715106,6.55164469 C21.0649233,7.08141428 20.7111861,7.58660332 20.1814165,7.68001599 C20.173004,7.68149934 20.1645723,7.68287196 20.1561237,7.68413349 L2.84150489,10.2695234 C2.56631096,10.3106149 2.30848,10.1249778 2.26016328,9.85096006 C2.21184657,9.57694235 2.39063678,9.31431712 2.6632886,9.25880863 L19.8179636,5.76633204 C20.3450925,5.65901521 20.8594123,5.99934012 20.9667291,6.52646899 C20.9684333,6.53483956 20.9700272,6.54323218 20.9715106,6.55164469 Z M16,16 C15.1715729,16 14.5,15.5522847 14.5,15 C14.5,14.4477153 15.1715729,14 16,14 C16.8284271,14 17.5,14.4477153 17.5,15 C17.5,15.5522847 16.8284271,16 16,16 Z M7,16 C6.17157288,16 5.5,15.5522847 5.5,15 C5.5,14.4477153 6.17157288,14 7,14 C7.82842712,14 8.5,14.4477153 8.5,15 C8.5,15.5522847 7.82842712,16 7,16 Z" id="Combined-Shape" fill="#335EEA" opacity="0.3"></path>
    </g>
</svg>

<svg width="24" height="24" viewBox="0 0 24 24" xmlns="http://www.w3.org/2000/svg"><g fill="none" fill-rule="evenodd"><path d="M0 0h24v24H0z"/><path d="M7 17c2.281 0 4-1.031 4-2 0-.969-1.719-2-4-2-2.281 0-4 1.031-4 2 0 .969 1.719 2 4 2zm4.5 4.31C10.69 22.31 8.98 23 7 23c-2.761 0-5-1.343-5-3v-5c0-1.657 2.239-3 5-3 1.98 0 3.69.69 4.5 1.69.81-1 2.52-1.69 4.5-1.69 2.761 0 5 1.343 5 3v5c0 1.657-2.239 3-5 3-1.98 0-3.69-.69-4.5-1.69zM16 17c2.281 0 4-1.031 4-2 0-.969-1.719-2-4-2-2.281 0-4 1.031-4 2 0 .969 1.719 2 4 2z" fill="#335EEA"/><path d="M19.66 2.021a.974.974 0 01-.627 1.246L2.336 8.53a.513.513 0 01-.334-.97l16.397-6.133a.974.974 0 011.262.595zm1.312 4.53a.974.974 0 01-.816 1.133L2.842 10.27a.513.513 0 01-.179-1.011l17.155-3.493a.974.974 0 011.154.786zM16 16c-.828 0-1.5-.448-1.5-1s.672-1 1.5-1 1.5.448 1.5 1-.672 1-1.5 1zm-9 0c-.828 0-1.5-.448-1.5-1s.672-1 1.5-1 1.5.448 1.5 1-.672 1-1.5 1z" fill="#335EEA" opacity=".3"/></g></svg>
